icons/mobile/24/svg/reader-view-fill-24.svg

<!-- This Source Code Form is subject to the terms of the Mozilla Public
   - License, v. 2.0. If a copy of the MPL was not distributed with this
   - file, You can obtain one at http://mozilla.org/MPL/2.0/. -->
<svg width="24" height="24" viewBox="0 0 24 24" fill="none" xmlns="http://www.w3.org/2000/svg">
    <path fill-rule="evenodd" clip-rule="evenodd" d="M4.5 4.5C4.5 3.11975 5.61975 2 7 2H17C18.3802 2 19.5 3.11975 19.5 4.5V18.5C19.5 19.8802 18.3802 21 17 21H7C5.61975 21 4.5 19.8802 4.5 18.5V4.5ZM8.75 6.25H15.25V8H8.75V6.25ZM8.75 10.25H15.25V12H8.75V10.25ZM8.75 14.25H12.722V16H8.75V14.25Z" fill="black" />
</svg>

<!-- This Source Code Form is subject to the terms of the Mozilla Public
   - License, v. 2.0. If a copy of the MPL was not distributed with this
   - file, You can obtain one at http://mozilla.org/MPL/2.0/. -->
<svg xmlns="http://www.w3.org/2000/svg" width="24" height="24" fill="none" viewBox="0 0 24 24">
    <path fill="#000" fill-rule="evenodd" d="M4.5 4.5A2.5 2.5 0 0 1 7 2h10a2.5 2.5 0 0 1 2.5 2.5v14A2.5 2.5 0 0 1 17 21H7a2.5 2.5 0 0 1-2.5-2.5zm4.25 1.75h6.5V8h-6.5zm0 4h6.5V12h-6.5zm0 4h3.972V16H8.75z" clip-rule="evenodd" />
</svg>
